X:1

T:A Dhòmhnuill, A Dhòmnhuill

M:C|

L:1/8

R:Reel

B:Stewart-Robertson – The Athole Collection  (1884)

Z:AK/Fiddler’s Companion

K:G

D|G2Gc Bdde|dBGB AFED|G2Gc Bdde|dBAB G/G/G G:|

f|gfed e/e/e g2|gfed eBBf|gfed e/e/e g2|dBAB G2Gf|

gfed e/e/e g2|gfed eBBf|gfed efga|bagf g2gb||

 

DHONAL NA GREINA. AKA and see "Daniel of the Sun."

 

DHU HILL, THE. Scottish, Jig. F Major. Standard tuning. AABBCC’. The key signature of the tune is D major in Kerr’s publication, though it makes little sense in that key. F major appears correct. Kerr (Merry Melodies), vol. 4; No. 254, pg. 27.

